X:1
T:Title
%%score { ( 1 3 ) | 2 }
L:1/8
M:4/4
K:Db
V:1 treble nm="Grand Piano"
V:3 treble 
V:2 bass 
V:1
 z4 z2[Q:1/4=100] F>E | D>D D>D D>[CE] [DF]>[EG] | [FA]>[FA] [GB]>[GB] [FA]2 [FA]>[FA] | %3
 [Fd]>[Fd] [Fd]>[GB] [FA]2 z[K:bass] [D,F,] |[M:9/8][K:treble] [DF]3- [DF] [CE]2- [CE][DF]>[CE] | %5
[M:4/4] D>D D>D D>[CE] [DF]>[EG] | [FA]>[FA] [GB]>[GB] [FA]2 [FA]>[FA] | %7
 [Fd]>[Fd] [Fd]>[Ge] [Af]2 [Fd][Fd] |[M:7/8] [Ge]- [Ge]3 [Fd]3 |[M:1/4] [DF]>[EG] | %10
[M:4/4] [FA]>[_F=G] [=FA]>[_GB] [FA]2 [Fd]>[Fe] | d->[Fd-] [Fd-]>[Fd] c->[Gc] E>F | %12
 G>F G>A [Gc]>[GB] [FA]>[EG] | F6 z2 | [FA]>[_F=G] [=FA]>[_GB] [FA]2 [Fd]>[Ac] | B>=A B>c B2 e>d | %16
 c>B c>B A2 [Gc][Gd] |[M:7/8] [Ge]- [Ge]3 [Fd]3 |] %18
V:2
 z4 z2 [D,A,D]>[D,G,D] | [D,F,]>[D,F,] [D,G,B,]>[D,G,B,] [D,F,A,]>[A,,A,] [D,A,]>[D,A,] | %2
 [D,D]>[D,D] [D,D]>[D,D] [D,D]2 [D,D]>[D,D] | [D,A,]>[D,A,] [D,A,]>[D,D] [D,D]2 .[D,A,]2 | %4
[M:9/8] [A,,A,]3- [A,,A,] [A,,A,]2- [A,,A,][A,,A,]>[A,,G,] | %5
[M:4/4] [D,F,]>[D,F,] [D,G,B,]>[D,G,B,] [D,F,A,]>[A,,A,] [D,A,]>[D,A,] | %6
 [D,D]>[D,D] [D,D]>[D,D] [D,D]2 [D,D]>[D,D] | [D,A,]>[D,A,] [D,D]>[D,D] [D,D]2 [D,A,][D,A,] | %8
[M:7/8] [A,,C]- [A,,C]3 [D,D]3 |[M:1/4] [D,A,]>[D,A,] | %10
[M:4/4] [D,D]>[D,D] [D,D]>[D,D] [D,D]2 [D,A,]>[D,A,] | %11
 [D,A,]>[D,A,] [D,A,]>[D,A,] [E,A,]>[E,A,] [G,A,C]>[F,A,D] | %12
 [E,A,C]>[E,A,C] [E,A,C]>[E,A,C] [A,,A,]>[A,,A,] [B,,A,]>[C,A,] | %13
 [D,A,D]>[D,A,] [D,A,]>[D,A,] [D,A,]2 [D,A,D]>[D,A,] | %14
 [D,D]>[D,D] [D,D]>[D,D] [D,D]2 [D,A,]>[F,D] | %15
 [G,DG]>[G,CG] [G,DG]>[G,EG] [G,DG]2 [G,B,G]>[G,B,G] | %16
 [A,G]>[A,G] [A,G]>[A,G] [A,CG]2[K:bass] [A,,A,][A,,A,] |[M:7/8] [A,,A,]- [A,,A,]3 [D,A,]3 |] %18
V:3
 x8 | x8 | x8 | z4 z2 [DF]2[K:bass] |[M:9/8][K:treble] x9 |[M:4/4] x8 | x8 | x8 |[M:7/8] x7 | %9
[M:1/4] x2 |[M:4/4] x8 | F2 z2 G2 z2 | x8 | z z/ D/ D>D D2 F>[EG] | x8 | x8 | x8 |[M:7/8] x7 |] %18

